X:1
T:Counted In
T:Counted In
T:John Marchant Whyte
T:John Marchant Whyte, 1894
T:Public Domain Courtesy of the Cyber Hymnal™
T:Public Domain Courtesy of the Cyber Hymnal™
C:John Marchant Whyte
Z:Public Domain
Z:Courtesy of the Cyber Hymnal™
%%score ( 1 2 ) ( 3 4 )
L:1/8
Q:1/4=90
M:4/4
K:A
V:1 treble 
V:2 treble 
V:3 bass 
V:4 bass 
V:1
 [A,C][B,D] | [CE][Ec] [Ec]>[DB] [CA]2 [CE][CA] | [DA][DG] [DG]>[DF] [CE]2 [CE][EA] | %3
w: 1.~I had|wan- dered far a- way In the|land of might- y foes, And my|
w: 2.~But I|found it writ- ten down, Who- so-|ev- er will be- lieve In the|
w: 3.~When the|par- don full and free, That is|prom- ised in His word, Is re-|
w: 4.~Oh, my|sin- ner friend, be- ware, A re-|veal- ing day is near That will|
 [EB][EB][EB][EB] [EG]E [Ed]>[Ec] | [EB]6 [A,C][B,D] | [CE][Ec] [Ec]>[DB] [CA]2 [CE][CA] | %6
w: soul had felt the bit- ter- ness of|sin; I was|march- ing with the hosts That the|
w: Son of God is saved from ev- ery|sin; And I|bless His ho- ly name, That the|
w: ceived by faith and Je- sus en- ters|in; What a|ju- bi- lee of joy In the|
w: show the sec- rets of the heart with-|in; Have it|cleansed by grace di- vine, And when|
 [DA][DG] [DG]>[DF] [CE]2 [CA][EG] | [DF][Fd][Fd][Fd] [Fc][DB] [CA]>[B,G] | [CA]6 || %9
w: truth of God op- pose, And a-|mong the saved I was not count- ed|in.|
w: pro- mise I re- ceive, In that|“who- so- ev- er” I am count- ed|in.|
w: hea- vens then is heard, And a|soul a- mong the saved is count- ed|in.|
w: Je- sus shall ap- pear, He will|then a- mong His je- wels count you|in.|
"^Refrain" [Ac]>[Bd] | [ce]6 [Ac]>[Ae] | A4 [CA]>[DB] x2 | [Ec][Ec][Ec][Ec] [Ec][EB] [Ed]>[Ec] | %13
w: ||||
w: Count- ed|in, count- ed|in, Who- so-|ev- er will be- lieve is count- ed|
w: ||||
w: ||||
 B6 [A,C][B,D] | [CE][Ec] [Ec]>[DB] [CA]2 [CE][CA] | [DA][DG] [DG]>[DF] [CE]2 [CA][EG] | %16
w: |||
w: in. What a|ju- bi- lee of joy In the|hea- vens then is heard, When a|
w: |||
w: |||
 [DF][Fd][Fd][Fd] [Fc][DB] [CA]>[B,G] | [CA]6 |] %18
w: ||
w: soul a- mong the saved is count- ed|in.|
w: ||
w: ||
V:2
 x2 | x8 | x8 | x5 E x2 | x8 | x8 | x8 | x8 | x6 || x2 | x8 | (E2 C>C C2) x2 | x8 | %13
 (E2 E>E E2) x2 | x8 | x8 | x8 | x6 |] %18
V:3
 [A,,A,][A,,A,] | [A,,A,][A,,A,] [A,,A,]>[A,,A,] [A,,A,]2 [A,,A,][A,,E,] | %2
w: ~ ~|~ ~ ~ ~ ~ ~ ~|
 [D,F,][D,F,] [D,A,]>[D,A,] [A,,A,]2 [A,,A,][A,,A,] | %3
w: ~ ~ ~ ~ ~ ~ ~|
 [E,G,][E,G,][E,G,][E,G,] [E,B,][E,G,] [E,B,]>[E,A,] | [E,G,]6 [A,,A,][A,,A,] | %5
w: ~ ~ ~ ~ ~ ~ ~ ~|~ ~ ~|
 [A,,A,][A,,A,] [A,,A,]>[A,,A,] [A,,A,]2 [A,,A,][A,,E,] | %6
w: ~ ~ ~ ~ ~ ~ ~|
 [D,F,][D,F,] [D,A,]>[D,A,] [A,,A,]2 [A,,A,][A,,A,] | %7
w: ~ ~ ~ ~ ~ ~ ~|
 [D,A,][D,A,][D,A,][D,A,] [E,A,][E,G,] [E,A,]>[E,B,] | [A,,A,]6 || z2 | %10
w: ~ ~ ~ ~ ~ ~ ~ ~|~||
 z2 [A,C]>[A,C] [A,C]2 [A,E]>[A,C] | [A,C]2 [A,,E,]>[A,,E,] [A,,E,]2 A,>A, | %12
w: Count- ed in, ~ ~|~ Count- ed in, ~ ~|
 A,A,A,A, [E,A,][E,G,] [E,B,]>[E,A,] | [E,G,]2 [E,G,]>[E,G,] [E,G,]2 [A,,A,][A,,A,] | %14
w: ~ ~ ~ ~ ~ ~ ~ ~|~ Count- ed in. * *|
 [A,,A,][A,,A,] [A,,A,]>[A,,A,] [A,,A,]2 [A,,A,][A,,E,] | %15
w: |
 [D,F,][D,F,] [D,A,]>[D,A,] [A,,A,]2 [A,,A,][A,,A,] | %16
w: |
 [D,A,][D,A,][D,A,][D,A,] [E,A,][E,G,] [E,A,]>[E,B,] | [A,,A,]6 |] %18
w: ||
V:4
 x2 | x8 | x8 | x8 | x8 | x8 | x8 | x8 | x6 || x2 | x8 | x6 A,>A, | A,A,A,A, x4 | x8 | x8 | x8 | %16
 x8 | x6 |] %18

